components/Common/Svg/svgs/yellowLogoWithBg.svg

<svg width="100" height="100" viewBox="0 0 100 100" fill="none" xmlns="http://www.w3.org/2000/svg">
<rect width="100" height="100" rx="17" fill="#FFE603"/>
<g clip-path="url(#clip0_837_1637)">
<path fill-rule="evenodd" clip-rule="evenodd" d="M49.3042 17.9614C66.6838 17.9614 80.774 32.0517 80.774 49.4312C80.774 66.8107 66.6838 80.901 49.3042 80.901C31.9247 80.901 17.8345 66.8107 17.8345 49.4312C17.8345 32.0517 31.9247 17.9614 49.3042 17.9614Z" fill="#FFE603"/>
<path fill-rule="evenodd" clip-rule="evenodd" d="M49.3042 17.9614C66.6838 17.9614 80.774 32.0517 80.774 49.4312C80.774 66.8107 66.6838 80.901 49.3042 80.901C31.9247 80.901 17.8345 66.8107 17.8345 49.4312C17.8345 32.0517 31.9247 17.9614 49.3042 17.9614V17.9614Z" stroke="#171717" stroke-width="0.755008" stroke-linejoin="round"/>
<path fill-rule="evenodd" clip-rule="evenodd" d="M31.0864 55.9779L32.826 58.6346C43.3264 51.7714 54.1432 51.803 65.9087 58.6662L67.5218 55.9462C54.7757 48.4821 42.5357 48.4821 31.0864 55.9779Z" fill="#171717"/>
<path fill-rule="evenodd" clip-rule="evenodd" d="M49.3357 64.0115C48.1022 64.0115 47.1218 62.9994 47.1218 61.7975C47.1218 60.5957 48.1339 59.5836 49.3357 59.5836C50.5376 59.5836 51.5497 60.5957 51.5497 61.7975C51.5497 62.9994 50.5692 64.0115 49.3357 64.0115ZM49.3357 56.3892C46.3627 56.3892 43.959 58.7929 43.959 61.7659C43.959 64.7389 46.3627 67.1426 49.3357 67.1426C52.3087 67.1426 54.7125 64.7389 54.7125 61.7659C54.7125 58.7929 52.3087 56.3892 49.3357 56.3892Z" fill="#171717"/>
<path fill-rule="evenodd" clip-rule="evenodd" d="M47.0903 45.4773L49.3043 47.6912L63.0624 33.9647L60.8168 31.7191L49.3675 43.2001L37.855 31.6875L35.6094 33.9331L47.1219 45.414L47.0903 45.4773Z" fill="#171717"/>
<path fill-rule="evenodd" clip-rule="evenodd" d="M49.3042 79.5721C32.6679 79.5721 19.1628 66.0353 19.1628 49.4307C19.1628 32.826 32.6995 19.2893 49.3042 19.2893C65.9405 19.2893 79.4456 32.826 79.4456 49.4307C79.4456 66.0353 65.9088 79.5721 49.3042 79.5721ZM49.3042 16.1265C30.9284 16.1265 16 31.0548 16 49.4307C16 67.8065 30.9284 82.7348 49.3042 82.7348C67.68 82.7348 82.6084 67.8065 82.6084 49.4307C82.6084 31.0548 67.68 16.1265 49.3042 16.1265Z" fill="#171717"/>
</g>
<defs>
<clipPath id="clip0_837_1637">
<rect width="68" height="68" fill="white" transform="translate(16 16)"/>
</clipPath>
</defs>
</svg>

<svg width="100" height="100" viewBox="0 0 100 100" fill="none" xmlns="http://www.w3.org/2000/svg"><rect width="100" height="100" rx="17" fill="#FFE603"/><g clip-path="url(#a)" clip-rule="evenodd"><path fill-rule="evenodd" d="M49.304 17.961c17.38 0 31.47 14.09 31.47 31.47s-14.09 31.47-31.47 31.47-31.47-14.09-31.47-31.47 14.09-31.47 31.47-31.47Z" fill="#FFE603"/><path d="M49.304 17.961c17.38 0 31.47 14.09 31.47 31.47s-14.09 31.47-31.47 31.47-31.47-14.09-31.47-31.47 14.09-31.47 31.47-31.47Z" stroke="#171717" stroke-width=".755" stroke-linejoin="round"/><path fill-rule="evenodd" d="m31.086 55.978 1.74 2.657c10.5-6.864 21.317-6.832 33.083.031l1.613-2.72c-12.746-7.464-24.986-7.464-36.436.032Z" fill="#171717"/><path fill-rule="evenodd" d="M49.336 64.011a2.22 2.22 0 0 1-2.214-2.213c0-1.202 1.012-2.214 2.214-2.214s2.214 1.012 2.214 2.213a2.22 2.22 0 0 1-2.214 2.215Zm0-7.622a5.372 5.372 0 0 0-5.377 5.377 5.372 5.372 0 0 0 5.377 5.377 5.372 5.372 0 0 0 5.377-5.377 5.372 5.372 0 0 0-5.377-5.377ZM47.09 45.477l2.214 2.214 13.758-13.726-2.245-2.246L49.367 43.2 37.855 31.687l-2.246 2.246 11.513 11.481-.032.063Z" fill="#171717"/><path fill-rule="evenodd" d="M49.304 79.572c-16.636 0-30.141-13.537-30.141-30.141 0-16.605 13.537-30.142 30.141-30.142 16.636 0 30.142 13.537 30.142 30.142 0 16.604-13.537 30.141-30.142 30.141Zm0-63.446C30.928 16.127 16 31.056 16 49.431c0 18.376 14.928 33.304 33.304 33.304S82.608 67.807 82.608 49.43 67.68 16.127 49.304 16.127Z" fill="#171717"/></g><defs><clipPath id="a"><path fill="#fff" transform="translate(16 16)" d="M0 0h68v68H0z"/></clipPath></defs></svg>
